!!!!SEGMENT: pl-wtm--r-132-n_noskowski-zygmunt--fuga-realna.krn
!!!cenid: 18xx:2140
!!!COM: Noskowski, Zygmunt
!!!COM-rismid: pe106604
!!!CDT: 1846/05/02-1909/07/23
!!!CNT: Polish
!!!OTL: Fuga realna
!!!PDT: 1873
!!!AGN: Secular; Fugue
!!!SMS-siglum: PL-Wtm
!!!SMS-shelfmark: R 132/N
!!!SMS-shelfwork: W
!!!SMS-variant:
!!!SMS-altvar:
!!!NIFC-rismid: 1001148423
!!!OMD: Moderato
!!!system-decoration: {(s1,s2)}
**kern	**kern
*part1	*part1
*staff2	*staff1
*Iempty	*Iforte
*	*I"[Fortepian]
*	*I'[pf]
*clefF4	*clefG2
*k[b-e-a-d-]	*k[b-e-a-d-]
*f:	*f:
*M3/4	*M3/4
=1	=1
*^	*
*	*	*^
!!LO:TX:t=P:problem:all\right:global
!	!	!LO:TX:a:Bi:t=Fuga	!
2.r	2.r	4a-/	2.r
.	.	4g/	.
.	.	4f/	.
=2	=2	=2	=2
2.r	2.r	4dd-/	2.r
.	.	8dd-/L	.
.	.	8cc/J	.
.	.	[4b-/	.
=3	=3	=3	=3
2.r	2.r	8b-/L]	2.r
.	.	8a-/	.
.	.	8g/	.
.	.	8f/	.
.	.	8en/	.
.	.	8g/J	.
=4	=4	=4	=4
2.r	2.r	8cc/L	2.r
.	.	8b-/J	.
.	.	8a-/L	.
.	.	16f/L	.
.	.	16g/JJ	.
.	.	16a-/LL	.
.	.	16g/	.
.	.	16an/	.
.	.	16bn/JJ	.
=5	=5	=5	=5
2.r	2.r	4cc/	4e-\
.	.	16r	4dn\
.	.	16bn/LL	.
.	.	16cc/	.
.	.	16ddn/JJ	.
.	.	16ee-/LL	4c\
.	.	16dd/	.
.	.	16ee-/	.
.	.	16gg/JJ	.
!!LO:LB:g=original
=6	=6	=6	=6
2.r	2.r	4ff/	4a-\
.	.	16r	8a-\L
.	.	16een/LL	.
.	.	16ff/	8g\J
.	.	16gg/JJ	.
.	.	8aa-/L	[4f\
.	.	8cc/J	.
=7	=7	=7	=7
2.r	2.r	16bn/LL	8f\L]
.	.	16an/	.
.	.	16b/	8e-\J
.	.	16cc/JJ	.
.	.	16ddn/LL	8dn\L
.	.	16cc/	.
.	.	16dd/	8c\
.	.	16ee-/JJ	.
.	.	16ff/LL	8Bn\
.	.	16ee-/	.
.	.	16ff/	8d\J
.	.	16dd/JJ	.
=8	=8	=8	=8
2.r	2.r	16ee-/LL	8g\L
.	.	16ddn/	.
.	.	16ee-/	8f\J
.	.	16ff/JJ	.
.	.	4.gg/	8e-\L
.	.	.	16c\L
.	.	.	16dn\JJ
.	.	.	16en\LL
.	.	.	16d\
.	.	8b-/	16e\
.	.	.	16g\JJ
=9	=9	=9	=9
4A-/	2.r	16a-/LL	4f\
.	.	16g/	.
.	.	16a-/	.
.	.	16b-/JJ	.
4G/	.	8cc/L	16r
.	.	.	16en\LL
.	.	16ddn/L	16f\
.	.	16een/JJ	16g\JJ
4F/	.	[4ff/	16a-\LL
.	.	.	16g\
.	.	.	16a-\
.	.	.	16cc\JJ
!!LO:LB:g=original
=10	=10	=10	=10
4d-/	2.r	2ff/_	4b-\
8d-/L	.	.	16r
.	.	.	16an\LL
8c/J	.	.	16b-\
.	.	.	16cc\JJ
[4B-/	.	8ff/L]	8dd-\L
.	.	16een/L	8f\J
.	.	16ff/JJ	.
=11	=11	=11	=11
8B-/L]	2.r	8gg/L	16en\LL
.	.	.	16dn\
8A-/J	.	8ff/	16e\
.	.	.	16f\JJ
8G/L	.	8een/	16g\LL
.	.	.	16f\
8F/J	.	8dd-/J	16g\
.	.	.	16a-\JJ
8En/L	.	[4cc/	16b-\LL
.	.	.	16a-\
8G/J	.	.	16b-\
.	.	.	16g\JJ
=12	=12	=12	=12
8c/L	2.r	8cc/L]	8a-\L
8B-/J	.	16ddn/L	8g\J
.	.	16een/JJ	.
8A-/L	.	8ff/L	8f\L
16F/L	.	8aa-/J	8cc\J
16G/JJ	.	.	.
16A-/LL	.	8dd/L	8bn\L
16G/	.	.	.
16An/	.	8ff/J	8g\J
16Bn/JJ	.	.	.
=13	=13	=13	=13
4c/	4E-\	8ff/L	4.g/
.	.	16ee-/L	.
.	.	16ff/JJ	.
16r	4Dn\	4.gg/	.
16Bn/LL	.	.	.
16c/	.	.	16an/LL
16dn/JJ	.	.	16bn/JJ
16e-\LL	4C\	.	[4cc\
16d\	.	.	.
16e-\	.	8ee-/	.
16g\JJ	.	.	.
!!LO:LB:g=original
=14	=14	=14	=14
4f\	4A-\	8ddn/L	2cc\]
.	.	8ee-/J	.
16r	8A-\L	8ff/L	.
16en\LL	.	.	.
16f\	8G\J	8ee-/J	.
16g\JJ	.	.	.
!LO:TX:t=P:problem:mixed beam	!	!	!
8a-/L	[4F\	8.dd/L	8cc\L
8c/J	.	.	16b-\L
.	.	16cc/Jk	16a-\JJ
=15	=15	=15	=15
16dn\LL	8F\L]	[4bn/	2.g\
16c\	.	.	.
16d\	8E-\	.	.
16e-\JJ	.	.	.
8f\L	8Dn\	16b/LL]	.
.	.	16an/	.
8e-\J	8C\J	16b/	.
.	.	16cc/JJ	.
[4d\	8BBn\L	16ddn/LL	.
.	.	16ee-/	.
.	8D\J	16dd/	.
.	.	16cc/JJ	.
=16	=16	=16	=16
8d\]	8G\L	16bn/LL	8g\
.	.	16g/	.
8r	8F\J	16an/	8r
.	.	16b/JJ	.
4r	8E-\L	16cc/LL	4r
.	.	16b/	.
.	8G\J	16cc/	.
.	.	16ddn/JJ	.
4r	8c\L	16ee-/LL	4r
.	.	16cc/	.
.	8B-\J	16dd/	.
.	.	16een/JJ	.
=17	=17	=17	=17
2.r	8A-\L	16ff/LL	2.r
.	.	16een/	.
.	8G\J	16ff/	.
.	.	16gg/JJ	.
.	8F\L	[4aa-/	.
.	8E-X\J	.	.
.	8D-X\L	16aa-/LL]	.
.	.	16gg/	.
.	8F\J	16ff/	.
.	.	16ee-X/JJ	.
!!LO:LB:g=original
=18	=18	=18	=18
2.r	8B-\L	16dd-/LL	2.r
.	.	16cc/	.
.	8A-\J	16dd-/	.
.	.	16ff/JJ	.
.	8G\L	[4ee-/	.
.	8F\J	.	.
.	8E-\L	16ee-/LL]	.
.	.	16dd-/	.
.	16F\L	16cc/	.
.	16G\JJ	16b-/JJ	.
=19	=19	=19	=19
2.r	8A-\L	16cc/LL	2.r
.	.	16b-/	.
.	8C\J	16a-/	.
.	.	16ee-/JJ	.
.	8D-\L	16f/LL	.
.	.	16ee-/	.
.	16E-\L	16g/	.
.	16F\JJ	16a-/JJ	.
.	[4G\	16b-/LL	.
.	.	16ee-/	.
.	.	16dd-/	.
.	.	16cc/JJ	.
=20	=20	=20	=20
2.ryy	8G\L]	16b-/LL	2.ryy
.	.	16a-/	.
.	8BB-\J	16g/	.
.	.	16dd-/JJ	.
.	8C\L	16e-/LL	.
.	.	16dd-/	.
.	16D-\L	16f/	.
.	16E-\JJ	16g/JJ	.
.	[4F\	16a-/LL	.
.	.	16dd-/	.
.	.	16cc/	.
.	.	16b-/JJ	.
=21	=21	=21	=21
2.ryy	8F\L]	16a-/LL	2.ryy
.	.	16g/	.
.	8AA-\J	16f/	.
.	.	16cc/JJ	.
.	8BB-\L	16d-/LL	.
.	.	16cc/	.
.	16C\L	16e-/	.
.	16D-\JJ	16f/JJ	.
.	[4E-\	16g/LL	.
.	.	16cc/	.
.	.	16b-/	.
.	.	16a-/JJ	.
!!LO:LB:g=original
=22	=22	=22	=22
2.r	8E-\L]	16g/LL	2.r
.	.	16f/	.
.	8GG\J	16e-/	.
.	.	16b-/JJ	.
.	8AA-\L	16c/LL	.
.	.	16b-/	.
.	8BB-\J	16d-/	.
.	.	16b-/JJ	.
.	8C\L	16e-/LL	.
.	.	16a-/	.
.	8D-\J	16f/	.
.	.	16a-/JJ	.
=23	=23	=23	=23
2.r	[2E-\	16B-/LL	2.r
.	.	16a-/	.
.	.	16g/	.
.	.	16f/JJ	.
.	.	16g/LL	.
.	.	16a-/	.
.	.	16b-/	.
.	.	16cc/JJ	.
.	8E-\L]	16dd-/LL	.
.	.	16cc/	.
.	16F\L	16dd-/	.
.	16G\JJ	16b-/JJ	.
=24	=24	=24	=24
4c/	16A-\LL	[4a-/	2.r
.	16G\	.	.
.	16F\	.	.
.	16E-\JJ	.	.
4B-/	4D-\	16a-/LL]	.
.	.	16b-/	.
.	.	16cc/	.
.	.	16dd-/JJ	.
4A-/	4C\	16ee-/LL	.
.	.	16dd-/	.
.	.	16ee-/	.
.	.	16cc/JJ	.
=25	=25	=25	=25
4f/	4.D-\	16b-/LL	2.r
.	.	16an/	.
.	.	16b-/	.
.	.	16cc/JJ	.
8f/L	.	16dd-/LL	.
.	.	16cc/	.
8e-/J	8C\	16dd-/	.
.	.	16ee-/JJ	.
[4d-/	8BB-\L	16ff/LL	.
.	.	16ee-/	.
.	8AA-\J	16ff/	.
.	.	16dd-/JJ	.
!!LO:LB:g=original
=26	=26	=26	=26
8d-/L]	8GG\L	16b-/LL	2.r
.	.	16ee-/	.
8c/J	8AA-\J	16a-/	.
.	.	16ee-/JJ	.
8B-/L	8BB-\L	16g/LL	.
.	.	16ee-/	.
8A-/J	16C\L	16a-/	.
.	16D-\JJ	16ee-/JJ	.
8G/L	16E-\LL	16b-/LL	.
.	16F\	16ee-/	.
8B-/J	16E-\	16g/	.
.	16D-\JJ	16ee-/JJ	.
=27	=27	=27	=27
8e-/L	16C\LL	16a-/LL	2.r
.	16E-\	16g/	.
8d-/J	16F\	16a-/	.
.	16G\JJ	16b-/JJ	.
8c/L	8A-\	16cc/LL	.
.	.	16b-/	.
16A-/L	8r	16cc/	.
16B-/JJ	.	16ddn/JJ	.
16c/LL	8r	8ee-/L	.
16B-/	.	.	.
16c/	8F\	8aa-/J	.
16dn/JJ	.	.	.
=28	=28	=28	=28
8e-/	4E-\	8gg/	4g/
8r	.	8r	.
4r	16r	4r	4f/
.	16Dn\LL	.	.
.	16E-\	.	.
.	16F\JJ	.	.
4r	16G\LL	4r	4e-/
.	16F\	.	.
.	16G\	.	.
.	16B-\JJ	.	.
=29	=29	=29	=29
[2e-\	4A-\	2.rdd	4cc/
.	16r	.	8cc/L
.	16G\LL	.	.
.	16A-\	.	8b-/J
.	16B-\JJ	.	.
8e-\L]	8c\L	.	[4a-/
16dn\L	8E-\J	.	.
16c\JJ	.	.	.
!!LO:LB:g=original
=30	=30	=30	=30
2.B-\	16Dn\LL	2.r	8a-/L]
.	16C\	.	.
.	16D\	.	8g/
.	16E-\JJ	.	.
.	16F\LL	.	8f/
.	16E-\	.	.
.	16F\	.	8e-/J
.	16G\JJ	.	.
.	16A-\LL	.	8dn/L
.	16G\	.	.
.	16A-\	.	8f/J
.	16F\JJ	.	.
=31	=31	=31	=31
8B-\L	8G\L	2.r	8b-/L
16c\L	8F\J	.	8a-/J
16dn\JJ	.	.	.
!LO:TX:t=P:problem:mixed beam	!	!	!
8e-/L	8E-\	.	8g/L
8G/J	8r	.	16e-/L
.	.	.	16f/JJ
8B-/L	4r	.	16g/LL
.	.	.	16f/
8E-/J	.	.	16g/
.	.	.	16b-/JJ
=32	=32	=32	=32
8A-/L	2.r	2.r	4c/
16B-/L	.	.	.
16c/JJ	.	.	.
8dn/L	.	.	8r
8F/J	.	.	16dn/LL
.	.	.	16e-/JJ
8A-/L	.	.	16f/LL
.	.	.	16e-/
8Dn/J	.	.	16f/
.	.	.	16a-/JJ
=33	=33	=33	=33
8G/L	2.r	2.r	4B-/
16A-/L	.	.	.
16B-/JJ	.	.	.
8c/L	.	.	8r
8E-/J	.	.	16c/LL
.	.	.	16dn/JJ
8G/L	.	.	16e-/LL
.	.	.	16d/
8C/J	.	.	16e-/
.	.	.	16g/JJ
!!LO:PB:g=original
=34	=34	=34	=34
8F/L	2.r	2.r	8A-/L
16G/L	.	.	[8f/J
16A-/JJ	.	.	.
8BBn/L	.	.	16f/LL]
.	.	.	16e-/
8Dn/J	.	.	16dn/
.	.	.	16c/JJ
16G/LL	.	.	16Bn/LL
16F/	.	.	16a-/
16E-/	.	.	16g/
16D/JJ	.	.	16f/JJ
=35	=35	=35	=35
8C/L	2.r	2.r	8e-/L
16c/L	.	.	[8cc/J
16B-/JJ	.	.	.
8An/L	.	.	16cc/LL]
.	.	.	16b-/
8e-/J	.	.	16an/
.	.	.	16g-X/JJ
16d-X/LL	.	.	16f/LL
16c/	.	.	16ee-/
16B-/	.	.	16dd-X/
16A/JJ	.	.	16cc/JJ
=36	=36	=36	=36
[2.B-/	4D-\	2.r	4b-\
.	4C\	.	8r
.	.	.	16b-\LL
.	.	.	16cc\JJ
.	4BB-\	.	16dd-\LL
.	.	.	16cc\
.	.	.	16dd-\
.	.	.	16ff\JJ
=37	=37	=37	=37
4B-/]	4G-X\	2.r	16ee-\LL
.	.	.	16ff\
.	.	.	16gg-X\
.	.	.	16ff\JJ
8r	8G-\L	.	8ee-\L
16c\LL	8F\J	.	8dd-\J
16d-\JJ	.	.	.
16e-\LL	[4E-\	.	8cc/L
16d-\	.	.	.
16e-\	.	.	8b-/J
16g-X\JJ	.	.	.
!!LO:LB:g=original
=38	=38	=38	=38
16c\LL	8E-\L]	2.r	[4an/
16B-\	.	.	.
16c\	8D-\J	.	.
16d-\JJ	.	.	.
8e-\L	8C\L	.	16a/LL]
.	.	.	16gn/
8d-\J	8BB-\J	.	16a/
.	.	.	16b-/JJ
8c\L	8AAn\L	.	16cc\LL
.	.	.	16b-\
8e-\J	8C\J	.	16a\
.	.	.	16g\JJ
=39	=39	=39	=39
16An/LL	8F\L	2.r	[4f/
16G/	.	.	.
16A/	8E-\J	.	.
16c/JJ	.	.	.
16B-/LL	8D-\L	.	8f/]
16c/	.	.	.
16d-/	16BB-\L	.	8r
16c/JJ	16C\JJ	.	.
4B-/	16D-\LL	.	4r
.	16C\	.	.
.	16Dn\	.	.
.	16En\JJ	.	.
=40	=40	=40	=40
2.A-/	4F\	4a-/	2.r
.	8r	4g/	.
.	16FF\LL	.	.
.	16GG\JJ	.	.
.	16AA-\LL	4f/	.
.	16GG\	.	.
.	16AA-\	.	.
.	16C\JJ	.	.
=41	=41	=41	=41
4G/	16BB-\LL	4dd-/	2.r
.	16C\	.	.
.	16D-\	.	.
.	16C\JJ	.	.
8r	8BB-\L	8dd-/L	.
16G/LL	8AA-\J	8cc/J	.
16A-/JJ	.	.	.
16B-/LL	8GG\L	[4b-/	.
16A-/	.	.	.
16B-/	8FF\J	.	.
16d-/JJ	.	.	.
!!LO:LB:g=original
=42	=42	=42	=42
4c/	16EEn\LL	8b-/L]	2.r
.	16DDn\	.	.
.	16EE\	8a-/J	.
.	16FF\JJ	.	.
[4B-/	16GG\LL	8g/L	.
.	16BB-\J	.	.
.	[8D-X\J	8f/J	.
8B-/L]	16D-\LL]	8en/L	.
.	16D-\	.	.
16A-/L	16C\	8g/J	.
16G/JJ	16BB-\JJ	.	.
=43	=43	=43	=43
8.F/L	16AAn\LL	4.cc/	2.r
.	16C\J	.	.
.	[8E-\J	.	.
16G-X/Jk	.	.	.
16F/LL	16E-\LL]	.	.
16An/J	16E-\	.	.
[8c/J	16D-\	16b-/LL	.
.	16C\JJ	16an/JJ	.
16c/LL]	8BB-\L	4b-/	.
16c/	.	.	.
16B-/	16D-\L	.	.
16A/JJ	16C\JJ	.	.
=44	=44	=44	=44
8.Gn/L	16BB-\LL	4.dd-/	2.r
.	16D-\J	.	.
.	[8F\J	.	.
16A-/Jk	.	.	.
16G/LL	16F\LL]	.	.
16B-/J	16F\	.	.
[8d-/J	16E-\	16cc/LL	.
.	16D-\JJ	16b-/JJ	.
16d-/LL]	8C\L	4cc/	.
16d-/	.	.	.
16c/	16E-\L	.	.
16B-/JJ	16D-\JJ	.	.
=45	=45	=45	=45
8.An/L	16C\LL	4.ee-/	2.r
.	16E-\J	.	.
.	[8G-X\J	.	.
16B-/Jk	.	.	.
!LO:TX:t=P:problem:mixed beam	!	!	!
16A/LL	16G-\LL]	.	.
16c/J	16G-\	.	.
[8e-/J	16F\	16dd-/LL	.
.	16E-\JJ	16cc/JJ	.
16e-\LL]	4D-\	8dd-/L	.
16e-\	.	.	.
16d-\	.	8ff/J	.
16c\JJ	.	.	.
!!LO:LB:g=original
=46	=46	=46	=46
2A-/	16E-\LL	16gg-X/LL	2.r
.	16F\	16ee-/J	.
.	16G-X\	[8cc/J	.
.	16F\JJ	.	.
.	16G-\LL	16cc/LL]	.
.	16E-\J	16cc/	.
.	[8C\J	16dd-/	.
.	.	16ee-/JJ	.
4d-/	16C\LL]	[4ff/	.
.	16C\	.	.
.	16D-\	.	.
.	16E-\JJ	.	.
=47	=47	=47	=47
2B-/	16D-\LL	16ff/LL]	2.r
.	16E-\	16dd-/J	.
.	16F\	[8b-/J	.
.	16E-\JJ	.	.
.	16F\LL	16b-/LL]	.
.	16D-\J	16b-/	.
.	[8BB-\J	16cc/	.
.	.	16dd-/JJ	.
8c/L	16BB-\LL]	[4ee-/	.
.	16BB-\	.	.
16A-/L	16C\	.	.
16B-/JJ	16D-\JJ	.	.
=48	=48	=48	=48
8A-/	8.C\L	16ee-/LL]	2.r
.	.	16cc/J	.
4g-X/	.	[8a-/J	.
.	16BB-\Jk	.	.
.	8C\L	16a-/LL]	.
.	.	16cc/	.
16c/LL	8AA-\J	16ee-/	.
16B-/JJ	.	16g-X/JJ	.
4A-/	4D-\	16f/LL	.
.	.	16a-/	.
.	.	16dd-/	.
.	.	16f/JJ	.
=49	=49	=49	=49
4B-/	2BB-\	16g-X/LL	2.ryy
.	.	16b-/	.
.	.	16dd-/	.
.	.	16g-/JJ	.
2c/	.	16en/LL	.
.	.	16g-/	.
.	.	16cc/	.
.	.	16e/JJ	.
.	[4AA-\	16f/LL	.
.	.	16a-/	.
.	.	16cc/	.
.	.	16e-X/JJ	.
!!LO:LB:g=original
=50	=50	=50	=50
2B-/	4AA-\]	16dn/LL	2.r
.	.	16f/	.
.	.	16b-/	.
.	.	16d/JJ	.
.	2GG-X\	16e-/LL	.
.	.	16g-X/	.
.	.	16b-/	.
.	.	16d-X/JJ	.
[4A-/	.	16c/LL	.
.	.	16e-/	.
.	.	16a-/	.
.	.	16c/JJ	.
=51	=51	=51	=51
4A-/]	8FF\	16d-/LL	2.r
.	.	16a-/	.
.	8r	16dd-/	.
.	.	16cc/JJ	.
8G-X/L	4r	16b-/LL	.
.	.	16ff/	.
8Gn/J	.	16ee-/	.
.	.	16dd-/JJ	.
8A-/L	4r	16cc/LL	.
.	.	16gg-X/	.
8An/J	.	16ff/	.
.	.	16ee-/JJ	.
=52	=52	=52	=52
8B-/L	2.r	16dd-/LL	4f\
.	.	16cc/	.
8A-X/J	.	16dd-/	.
.	.	16aa-/JJ	.
4G-X/	.	16cc/LL	4e-\
.	.	16ee-/	.
.	.	16aa-/	.
.	.	16cc/JJ	.
4F/	.	16dd-/LL	4d-\
.	.	16ff/	.
.	.	16aa-/	.
.	.	16dd-/JJ	.
=53	=53	=53	=53
8G-X/L	4r	16b-/LL	4b-\
.	.	16dd-/	.
8A-/J	.	16gg-X/	.
.	.	16cc/JJ	.
8B-/	8GG-X\L	16b-/LL	8b-\L
.	.	16dd-/	.
8r	8AA-\J	16gg-/	8a-\J
.	.	16cc/JJ	.
4r	4BB-\	16b-/LL	[4g-X\
.	.	16dd-/	.
.	.	16gg-/	.
.	.	16b-/JJ	.
!!LO:LB:g=original
=54	=54	=54	=54
2.r	4EE-\	16cc/LL	8g-\L]
.	.	16ee-/	.
.	.	16gg-X/	8f\
.	.	16dd-/JJ	.
.	[2AA-\	16cc/LL	8e-\
.	.	16ee-/	.
.	.	16gg-/	8d-\J
.	.	16b-/JJ	.
.	.	16a-/LL	8c\L
.	.	16ee-/	.
.	.	16gg-/	8e-\J
.	.	16dd-/JJ	.
=55	=55	=55	=55
2.r	4AA-\]	16cc/LL	8a-\L
.	.	16ee-/	.
.	.	16aa-/	8g-X\J
.	.	16cc/JJ	.
.	4.D-\	16dd-/LL	8f\L
.	.	16ff/	.
.	.	16aa-/	16d-\L
.	.	16cc/JJ	16e-\JJ
.	.	16dd-/LL	16f\LL
.	.	16ff/	16e-\
.	8BB-\	16aa-/	16f\
.	.	16dd-/JJ	16gn\JJ
=56	=56	=56	=56
4c/	4AA-\	8cc/	16a-\LL
.	.	.	16g\
.	.	8r	16a-\
.	.	.	16ee-\JJ
4B-/	4D-\	4r	16g\LL
.	.	.	16b-\
.	.	.	16ee-\
.	.	.	16g\JJ
4A-/	4C\	4r	16a-\LL
.	.	.	16cc\
.	.	.	16ee-\
.	.	.	16a-\JJ
=57	=57	=57	=57
4f/	4.D-\	2.r	16f/LL
.	.	.	16a-/
.	.	.	16dd-/
.	.	.	16g/JJ
8f/L	.	.	16f/LL
.	.	.	16a-/
8e-/J	8E-\	.	16dd-/
.	.	.	16g/JJ
[4d-/	4F\	.	16f/LL
.	.	.	16a-/
.	.	.	16dd-/
.	.	.	16f/JJ
!!LO:LB:g=original
=58	=58	=58	=58
8d-/L]	4.E-\	2.r	16g/LL
.	.	.	16b-/
8c/	.	.	16dd-/
.	.	.	16a-/JJ
8B-/	.	.	16g/LL
.	.	.	16b-/
8A-/J	8F\L	.	16dd-/
.	.	.	16f/JJ
8G/L	8E-\	.	16g/LL
.	.	.	16b-/
8B-/J	8D-\J	.	16ee-/
.	.	.	16g/JJ
=59	=59	=59	=59
8e-/L	16C\LL	2.raa	[4a-/
.	16E-\	.	.
8d-/J	16F\	.	.
.	16G\JJ	.	.
8c/L	8A-\L	.	16a-/LL]
.	.	.	16cc/
16A-/L	8C\	.	16ee-/
16B-/JJ	.	.	16dd-/JJ
16c/LL	8E-\	.	8cc/
16B-/	.	.	.
16c/	8AA-\J	.	8r
16e-/JJ	.	.	.
=60	=60	=60	=60
4F/	8D-\L	2.re	2.rdd
.	16E-\L	.	.
.	16F\JJ	.	.
8r	8G\L	.	.
16G/LL	8BB-\J	.	.
16A-/JJ	.	.	.
16B-/LL	8D-\L	.	.
16A-/	.	.	.
16B-/	8GG\J	.	.
16d-/JJ	.	.	.
=61	=61	=61	=61
4E-/	8C\L	2.re	2.rdd
.	16D-\L	.	.
.	16E-\JJ	.	.
8r	8F\L	.	.
16F/LL	8AA-\J	.	.
16G/JJ	.	.	.
16A-/LL	8C\L	.	.
16G/	.	.	.
16A-/	8FF\J	.	.
16c/JJ	.	.	.
!!LO:LB:g=original
=62	=62	=62	=62
16D-/LL	8BB-\L	2.r	4b-\
16c/	.	.	.
16B-/	16C\L	.	.
16A-/JJ	16D-\JJ	.	.
8G/L	8E-\L	.	8r
8B-/J	8D-\J	.	16b-\LL
.	.	.	16cc\JJ
8E-/L	8C\L	.	16dd-\LL
.	.	.	16cc\
8G/J	8BB-\J	.	16dd-\
.	.	.	16b-\JJ
=63	=63	=63	=63
8A-/L	8AA-\	2.r	4cc\
16B-/L	8r	.	.
16c/JJ	.	.	.
8d-/L	4r	.	8r
8c/J	.	.	16a-\LL
.	.	.	16b-\JJ
8B-/L	4r	.	16cc\LL
.	.	.	16dd-\
8A-/J	.	.	16cc\
.	.	.	16f\JJ
=64	=64	=64	=64
8G/L	2.r	4een/	4b-\
16A-/L	.	.	.
16B-/JJ	.	.	.
8c/L	.	8ryy	8ryy
8d-/J	.	16ee/LL	16g\LL
.	.	16ff/JJ	16a-\JJ
8c/L	.	16gg/LL	16b-\LL
.	.	16ff/	16a-\
8B-/J	.	16gg/	16b-\
.	.	16ee/JJ	16g\JJ
=65	=65	=65	=65
4A-/	2.r	4ff/	16f\LL
.	.	.	16en\
.	.	.	16f\
.	.	.	16a-\JJ
4G/	.	16r	4b-\
.	.	16een/LL	.
.	.	16ff/	.
.	.	16gg/JJ	.
4F/	.	16aa-/LL	8cc\L
.	.	16gg/	.
.	.	16aa-/	[8a-\J
.	.	16cc/JJ	.
!!LO:PB:g=original
=66	=66	=66	=66
4dn/	2.r	4bn/	8a-\L]
.	.	.	16a-\L
.	.	.	16g\JJ
8d/L	.	8r	2f\
8c/J	.	16b/LL	.
.	.	16cc/JJ	.
4Bn/	.	16ddn/LL	.
.	.	16cc/	.
.	.	16dd/	.
.	.	16g/JJ	.
=67	=67	=67	=67
8c/	4E-\	16gg/LL	4e-\
.	.	16bn/	.
8r	.	16cc/	.
.	.	16ee-/JJ	.
4r	4D-\	4ff/	16r
.	.	.	16Bn\LL
.	.	.	16c\
.	.	.	16dn\JJ
4r	4C\	8gg/L	16e-\LL
.	.	.	16d\
.	.	[8ee-/J	16e-\
.	.	.	16g\JJ
=68	=68	=68	=68
2.ryy	4An\	8ee-/L]	4f#X\
.	.	16ee-/L	.
.	.	16ddn/JJ	.
.	8A\L	2cc/	8r
.	8G\J	.	16f#\LL
.	.	.	16g\JJ
.	4F#X\	.	16an\LL
.	.	.	16g\
.	.	.	16a\
.	.	.	16f#\JJ
=69	=69	=69	=69
2.ryy	4G\	4b-X/	4dn\
.	16r	4an/	4r
.	16F#X\LL	.	.
.	16G\	.	.
.	16An\JJ	.	.
.	16B-\LL	4g/	4r
.	16A\	.	.
.	16B-\	.	.
.	16dn\JJ	.	.
!!LO:LB:g=original
=70	=70	=70	=70
2.ryy	4c\	4een/	4en\
.	16r	8ee/L	4f\
.	16BBn\LL	.	.
.	16C\	8ddn/J	.
.	16Dn\JJ	.	.
.	16En\LL	4cc/	4g\
.	16D\	.	.
.	16E\	.	.
.	16G\JJ	.	.
=71	=71	=71	=71
2.ryy	16F\LL	4cc/	4a-X\
.	16En\	.	.
.	16F\	.	.
.	16G\JJ	.	.
.	8A-\L	16r	8a-\L
.	.	16cc/LL	.
.	16B-\L	16ddn/	8g\J
.	16c\JJ	16een/JJ	.
.	[4d-X\	16ff/LL	[4f\
.	.	16ee/	.
.	.	16ff/	.
.	.	16dd-X/JJ	.
=72	=72	=72	=72
2.ryy	16d-\LL]	[2.b-/	4f\]
.	16c\	.	.
.	16B-\	.	.
.	16A-\JJ	.	.
.	16B-\LL	.	8f\L
.	16A-\	.	.
.	16G\	.	8e-\J
.	16A-\JJ	.	.
.	16B-\LL	.	[4d-\
.	16A-\	.	.
.	16G\	.	.
.	16F\JJ	.	.
=73	=73	=73	=73
2.ryy	4En\	4b-/_	16d-\LL]
.	.	.	16c\
.	.	.	16en\
.	.	.	16f\JJ
.	8E\L	16b-/LL]	16g\LL
.	.	16a-/	16f\
.	8D-X\J	16b-/	16g\
.	.	16cc/JJ	16a-\JJ
.	[4C\	[4dd-/	16b-\LL
.	.	.	16a-\
.	.	.	16b-\
.	.	.	16f\JJ
!!LO:LB:g=original
=74	=74	=74	=74
2.ryy	2.C\_	16dd-/LL]	16en\LL
.	.	16cc/	16f\
.	.	16b-/	16g\
.	.	16dd-/JJ	16f\JJ
.	.	16cc/LL	16e\LL
.	.	16b-/	16g\
.	.	16a-/	16f\
.	.	16cc/JJ	16e-X\JJ
.	.	16b-/LL	16dn\LL
.	.	16a-/	16f\
.	.	16g/	16e-\
.	.	16b-/JJ	16d-X\JJ
=75	=75	=75	=75
4G\	2C\_	16g/LL	16B-\LL
.	.	16f/	16Bn\
.	.	16e-/	16c\
.	.	16g/JJ	16e-\JJ
4F/	.	16a-/LL	8f\L
.	.	16g/	.
.	.	16a-/	8d-\J
.	.	16b-/JJ	.
4En/	16C\LL]	4cc/	8c\L
.	16D-\	.	.
.	16C\	.	8g\J
.	16BB-\JJ	.	.
=76	=76	=76	=76
4c/	4AA-\	[2.cc/	4f\
8c/L	4GG\	.	16r
.	.	.	16en\LL
8B-/J	.	.	16f\
.	.	.	16g\JJ
[4A-/	4FF\	.	16a-\LL
.	.	.	16g\
.	.	.	16a-\
.	.	.	16cc\JJ
=77	=77	=77	=77
8A-/L]	4D-\	8cc/L]	[2f\
8G/J	.	[8b-/J	.
8F/L	8D-\L	16b-/LL]	.
.	.	16an/	.
8E-/J	8C\J	16b-/	.
.	.	16cc/JJ	.
8D-/L	4BB-\	[4dd-/	16f\LL]
.	.	.	16en\
8F/J	.	.	16f\
.	.	.	16a-X\JJ
!!LO:LB:g=original
=78	=78	=78	=78
4B-/	8BB-\L	16dd-/LL]	4g\
.	.	16cc/	.
.	8AA-\J	16dd-/	.
.	.	16ee-/JJ	.
2d-/	8GG\L	16ff/LL	8g\L
.	.	16een/	.
.	8FF\J	16ff/	8a-\J
.	.	16aa-/JJ	.
.	8EEn\L	16gg/LL	4b-\
.	.	16ff/	.
.	8GG\J	16ee/	.
.	.	16ff/JJ	.
=79	=79	=79	=79
2.c/	8C\L	16een/LL	8b-\L
.	.	16cc/	.
.	8BB-\J	16ddn/	8g\J
.	.	16ee/JJ	.
.	8AA-\L	[2ff/	8cc\L
.	16FF\L	.	16a-\L
.	16GG\JJ	.	16b-\JJ
.	16AA-\LL	.	8cc\L
.	16GG\	.	.
.	16AA-\	.	[8f\J
.	16C\JJ	.	.
=80	=80	=80	=80
8B-\L	8D-\L	4ff/]	16f\LL]
.	.	.	16g\
8c\J	8C\J	.	16an\
.	.	.	16f\JJ
4.d-/	8BB-\L	4.dd-/	4b-\
.	16GG\L	.	.
.	16AA-\JJ	.	.
.	16BB-\LL	.	[4f\
.	16AA-\	.	.
8G/	16BB-\	16cc/LL	.
.	16D-\JJ	16b-/JJ	.
=81	=81	=81	=81
4A-/	2.C\	[4cc/	16f\LL]
.	.	.	16c\
.	.	.	16dn\
.	.	.	16en\JJ
4G/	.	16cc/LL]	16f\LL
.	.	16cc/	16e\
.	.	16ddn/	16f\
.	.	16een/JJ	16g\JJ
4F/	.	[4ff/	16a-\LL
.	.	.	16g\
.	.	.	16a-\
.	.	.	16cc\JJ
!!LO:LB:g=original
=82	=82	=82	=82
4d-/	2.C\	4ff/]	16b-\LL
.	.	.	16a-\
.	.	.	16g\
.	.	.	16a-\JJ
8d-\L	.	4ee-X/	16g\LL
.	.	.	16f\
8c\J	.	.	16e-\
.	.	.	16f\JJ
[4B-\	.	4dd-X/	16g\LL
.	.	.	16a-\
.	.	.	16b-\
.	.	.	16cc\JJ
=83	=83	=83	=83
8B-/L]	2.C\	4bb-/	16dd-\LL
.	.	.	16ee-\
8A-/J	.	.	16dd-\
.	.	.	16cc\JJ
8G/L	.	8bb-/L	16b-\LL
.	.	.	16a-\
8F/J	.	8aa-/J	16b-\
.	.	.	16cc\JJ
8En/L	.	4gg/	16dd-\LL
.	.	.	16cc\
8G/J	.	.	16dd-\
.	.	.	16b-\JJ
=84	=84	=84	=84
4c/	2.C\	4aa-/	16a-\LL
.	.	.	16g\
.	.	.	16a-\
.	.	.	16b-\JJ
4B-/	.	8aa-/L	16cc\LL
.	.	.	16b-\
.	.	8gg/J	16cc\
.	.	.	16dd-\JJ
4A-/	.	4ff/	16cc\LL
.	.	.	16f\
.	.	.	16g\
.	.	.	16f\JJ
=85	=85	=85	=85
2B-/	2.C\	4gg/	16en\LL
.	.	.	16dn\
.	.	.	16e\
.	.	.	16f\JJ
.	.	8gg/L	16g\LL
.	.	.	16f\
.	.	8ff/J	16g\
.	.	.	16a-\JJ
4G/	.	4een/	16b-\LL
.	.	.	16dd-\
.	.	.	16cc\
.	.	.	16b-\JJ
!!LO:LB:g=original
=86	=86	=86	=86
16An/LL	2.FF\	8ff/	4an\
16G/	.	.	.
16F/	.	8r	.
16G/JJ	.	.	.
16A/LL	.	4r	4g/
16B-/	.	.	.
16c/	.	.	.
16d-/JJ	.	.	.
16e-\LL	.	4r	4f\
16d-\	.	.	.
16e-\	.	.	.
16f\JJ	.	.	.
=87	=87	=87	=87
16g-X\LL	2.FF\	2.rff	4ee-/
16a-\	.	.	.
16g-\	.	.	.
16f\JJ	.	.	.
16e-\LL	.	.	8ee-/L
16d-\	.	.	.
16e-\	.	.	8dd-/J
16f\JJ	.	.	.
16g-\LL	.	.	4cc/
16f\	.	.	.
16g-\	.	.	.
16e-\JJ	.	.	.
=88	=88	=88	=88
16d-\LL	2.FF\	4dd-/	4b-\
16c\	.	.	.
16d-\	.	.	.
16e-\JJ	.	.	.
16f\LL	.	4cc/	4an/
16g-X\	.	.	.
16f\	.	.	.
16e-\JJ	.	.	.
!LO:TX:t=P:problem:mixed beam	!	!	!
16d-/LL	.	4b-/	[4b-\
16c/	.	.	.
16B-/	.	.	.
16A-/JJ	.	.	.
!!LO:LB:g=original
=89	=89	=89	=89
16B-/LL	2.FF\	4gg/	4.b-\]
16A-/	.	.	.
16G/	.	.	.
16A-/JJ	.	.	.
16B-/LL	.	8gg/L	.
16A-/	.	.	.
16B-/	.	8ff/J	8a-\
16c/JJ	.	.	.
16d-/LL	.	4een/	4g/
16c/	.	.	.
16d-/	.	.	.
16B-/JJ	.	.	.
=90	=90	=90	=90
16An/LL	2.FF\	[4ff/	2f\
16B-/	.	.	.
16c/	.	.	.
16d-/JJ	.	.	.
8e-\L	.	16ff/LL]	.
.	.	16cc/	.
16d-\L	.	16dd-/	.
16c\JJ	.	16ee-/JJ	.
!LO:TX:t=P:problem:mixed beam	!	!	!
8B-/L	.	16dd-/LL	8f\L
.	.	16cc/	.
8d-/J	.	16b-/	8gn\J
.	.	16dd-/JJ	.
=91	=91	=91	=91
2c/	2.FF;<\	2.ff;>/	2.an\
4ryy	.	.	.
*v	*v	*	*
*	*v	*v
==	==
*-	*-
!!title: @{OTL};
!!!RDF**kern: > = above
!!!RDF**kern: < = below
!!!RDF**kern: | = vertical stroke
!!!RDF**kern: N = linked
!!!RDF**kern: i = editorial accidental
!!!EED: Wojciech Jakubiak-Danek
!!!EST: 2021-06-10
!!!URL-scan: http://repozytorium.nifc.pl/skany/pl-wtm-nut--r132n
!!!ONB-nifc:
!!!ENC: Marcin Jachim
!!!END: 2021-05-01
